; HEADER_BLOCK_START
; generated by OrcaSlicer 2.1.1 on 2024-09-12 at 14:57:24
; total layer number: 240
; filament_density: 1.04,1.04
; filament_diameter: 1.75,1.75
; max_z_height: 48.00
; HEADER_BLOCK_END

; THUMBNAIL_BLOCK_START

;
; THUMBNAIL_BLOCK_END

; THUMBNAIL_BLOCK_START

;
; THUMBNAIL_BLOCK_END

; external perimeters extrusion width = 0.45mm
; perimeters extrusion width = 0.45mm
; infill extrusion width = 0.45mm
; solid infill extrusion width = 0.45mm
; top infill extrusion width = 0.45mm
; first layer extrusion width = 0.50mm

; external perimeters extrusion width = 0.45mm
; perimeters extrusion width = 0.45mm
; infill extrusion width = 0.45mm
; solid infill extrusion width = 0.45mm
; top infill extrusion width = 0.45mm
; first layer extrusion width = 0.50mm

; EXECUTABLE_BLOCK_START
EXCLUDE_OBJECT_DEFINE NAME=MK3SMMU2S_Benchy_1_id_0_copy_0 CENTER=250,250 POLYGON=[[224.586,260.433],[224.586,260.422],[224.589,260.306],[224.592,260.247],[224.596,260.183],[224.606,260.102],[224.613,260.059],[224.623,260.001],[224.634,259.944],[224.669,259.804],[224.706,259.694],[224.717,259.663],[224.727,259.636],[224.75,259.576],[224.799,259.465],[224.826,259.412],[224.86,259.353],[224.93,259.236],[224.946,259.21],[225.05,259.07],[241.94,236.718],[242.037,236.59],[242.198,236.378],[242.5,235.989],[242.542,235.935],[242.71,235.724],[243.057,235.296],[243.166,235.164],[243.477,234.791],[243.907,234.293],[243.962,234.229],[244.371,233.773],[244.48,233.652],[244.789,233.317],[244.87,233.231],[244.915,233.183],[245.132,232.955],[245.306,232.776],[245.489,232.586],[245.853,232.223],[246.163,231.919],[246.479,231.613],[246.734,231.373],[246.814,231.298],[247.055,231.074],[247.38,230.78],[247.732,230.468],[247.95,230.278],[248.093,230.155],[248.174,230.086],[248.363,229.927],[248.413,229.886],[248.435,229.869],[249.031,229.435],[249.084,229.398],[249.538,229.125],[249.862,228.932],[250.134,228.776],[250.479,228.581],[250.721,228.45],[250.911,228.346],[251.109,228.242],[251.317,228.133],[251.51,228.034],[251.709,227.933],[251.72,227.928],[251.924,227.829],[252.163,227.714],[252.378,227.612],[252.528,227.542],[252.733,227.447],[252.938,227.355],[253.145,227.264],[253.461,227.129],[253.56,227.086],[253.823,226.976],[254.034,226.89],[254.248,226.806],[254.57,226.682],[254.793,226.597],[255.081,226.494],[255.3,226.416],[255.723,226.267],[255.935,226.197],[256.363,226.059],[256.789,225.931],[257.222,225.804],[257.654,225.685],[258.087,225.574],[258.527,225.468],[258.742,225.417],[258.965,225.367],[259.185,225.32],[259.395,225.276],[259.848,225.183],[260.068,225.143],[260.511,225.065],[260.735,225.029],[261.183,224.956],[261.409,224.922],[261.862,224.86],[262.088,224.832],[262.313,224.805],[262.535,224.781],[263,224.732],[263.456,224.692],[264.147,224.645],[264.375,224.633],[264.759,224.616],[264.99,224.606],[265.222,224.597],[265.682,224.59],[266.144,224.586],[266.372,224.587],[266.841,224.596],[267.302,224.61],[267.572,224.62],[267.985,224.64],[268.217,224.651],[268.681,224.682],[269.373,224.74],[270.063,224.816],[270.296,224.843],[270.757,224.903],[270.998,224.937],[271.681,225.04],[272.144,225.116],[272.606,225.204],[272.89,225.262],[273.01,225.289],[273.126,225.328],[273.183,225.348],[273.24,225.369],[273.301,225.393],[273.454,225.458],[273.618,225.549],[273.669,225.58],[273.871,225.723],[273.965,225.802],[274.017,225.849],[274.143,225.975],[274.182,226.02],[274.264,226.116],[274.337,226.214],[274.372,226.263],[274.44,226.365],[274.472,226.423],[274.554,226.578],[274.628,226.745],[274.672,226.863],[274.737,227.095],[274.79,227.369],[274.874,227.826],[274.955,228.294],[275.059,228.978],[275.111,229.364],[275.123,229.449],[275.178,229.912],[275.232,230.378],[275.281,230.841],[275.334,231.541],[275.369,232.176],[275.38,232.408],[275.399,232.873],[275.414,233.57],[275.406,234.509],[275.394,234.951],[275.386,235.183],[275.341,236.099],[275.287,236.783],[275.264,237.015],[275.242,237.239],[275.191,237.703],[275.136,238.148],[275.104,238.383],[275.07,238.623],[275.039,238.838],[275.005,239.059],[274.969,239.282],[274.894,239.734],[274.807,240.187],[274.669,240.863],[274.568,241.317],[274.462,241.757],[274.406,241.981],[274.346,242.21],[274.23,242.645],[274.105,243.088],[274.011,243.399],[273.81,244.033],[273.743,244.245],[273.593,244.678],[273.437,245.108],[273.362,245.313],[273.187,245.771],[273.125,245.926],[273.033,246.148],[272.912,246.435],[272.777,246.758],[272.632,247.089],[272.41,247.571],[272.316,247.776],[272.119,248.176],[271.915,248.586],[271.815,248.78],[271.693,249.012],[271.58,249.219],[271.49,249.383],[271.35,249.636],[271.235,249.841],[271.162,249.971],[270.818,250.555],[270.594,250.928],[270.313,251.34],[270.242,251.43],[270.159,251.531],[269.964,251.763],[269.75,252.016],[269.49,252.313],[269.201,252.638],[268.845,253.031],[268.46,253.436],[268.342,253.56],[268.042,253.874],[267.28,254.636],[267.079,254.834],[266.758,255.139],[266.464,255.413],[266.246,255.611],[265.592,256.191],[265.079,256.631],[264.649,256.987],[264.069,257.454],[263.741,257.708],[263.351,258.005],[240.886,274.983],[240.815,275.034],[240.753,275.076],[240.678,275.12],[240.626,275.15],[240.582,275.174],[240.47,275.229],[240.418,275.25],[240.315,275.291],[240.26,275.309],[240.204,275.328],[240.08,275.359],[240.011,275.375],[239.816,275.403],[239.734,275.408],[239.635,275.414],[239.545,275.413],[239.456,275.408],[239.34,275.394],[239.226,275.379],[239.165,275.366],[239.074,275.343],[239.048,275.336],[238.99,275.321],[238.922,275.298],[238.817,275.261],[238.707,275.213],[238.557,275.137],[238.499,275.102],[238.408,275.042],[238.362,275.01],[238.291,274.956],[238.253,274.926],[238.169,274.854],[225.164,261.849],[225.123,261.802],[225.087,261.76],[225.041,261.706],[224.978,261.62],[224.945,261.573],[224.896,261.498],[224.867,261.447],[224.853,261.422],[224.836,261.391],[224.785,261.292],[224.768,261.255],[224.746,261.201],[224.699,261.075],[224.686,261.037],[224.678,261.009],[224.654,260.928],[224.623,260.781],[224.617,260.75],[224.603,260.657],[224.592,260.558],[224.587,260.48],[224.586,260.433]]
M73 P0 R29
;TYPE:Custom
START_PRINT EXTRUDER_TEMP=248,248 EXTRUDER_OTHER_LAYER_TEMP=243,243 BED_TEMP=108 CHAMBER_TEMP=0 INITIAL_TOOL=1 TOTAL_LAYER_COUNT=240 X0=219.438 Y0=225.863 X1=274.131 Y1=280.556
G90
G21
M83 ; use relative distances for extrusion
T1
;_FORCE_RESUME_FAN_SPEED
M104 S248 ; set nozzle temperature
; Filament gcode
SET_PRESSURE_ADVANCE ADVANCE=0.03; Override pressure advance value
M106 S0
;LAYER_CHANGE
;Z:0.2
;HEIGHT:0.2
;0.2
G1 E-.8 F7200
;AFTER_LAYER_CHANGE
;0.2
G92 E0
_ON_LAYER_CHANGE LAYER=1
;_SET_FAN_SPEED_CHANGING_LAYER
SET_VELOCITY_LIMIT ACCEL=2500 ACCEL_TO_DECEL=1250
G1 Z.2 F36000
G1 X238.578 Y234.565
M73 P0 R28
G1 E.8 F7200
;TYPE:Skirt
;WIDTH:0.5
G1 F3000
G1 X240.063 Y233.059 E.07877
G1 X241.712 Y231.639 E.08104
G1 X243.291 Y230.488 E.07278
G1 X245.208 Y229.319 E.08364
G1 X247.353 Y228.252 E.08923
G1 X249.512 Y227.424 E.08614
G1 X251.615 Y226.819 E.08151
G1 X253.835 Y226.382 E.08426
G1 X255.878 Y226.155 E.07656
G1 X257.902 Y226.092 E.07541
G1 X260.374 Y226.229 E.09222
G1 X262.738 Y226.586 E.08904
G1 X263.97 Y226.861 E.04702
G1 X265.543 Y227.349 E.06134
G1 X266.633 Y227.825 E.04433
G1 X267.991 Y228.608 E.05836
G1 X269.325 Y229.634 E.06269
G1 X269.883 Y230.162 E.02862
G1 X270.95 Y231.39 E.06057
G1 X271.72 Y232.539 E.05155
G1 X272.3 Y233.639 E.0463
G1 X272.979 Y235.468 E.07269
G1 X273.564 Y238.13 E.1015
G1 X273.857 Y240.741 E.09787
G1 X273.885 Y243.269 E.09414
G1 X273.703 Y245.519 E.08408
G1 X273.232 Y248.145 E.09939
G1 X272.525 Y250.605 E.0953
G1 X271.672 Y252.783 E.08716
G1 X270.641 Y254.846 E.08588
G1 X269.484 Y256.732 E.08242
G1 X268.084 Y258.612 E.0873
G1 X266.571 Y260.307 E.08463
G1 X265.096 Y261.704 E.07566
G1 X247.678 Y277.132 E.86664
G1 X246.781 Y277.856 E.04296
G1 X245.091 Y278.904 E.07405
G1 X243.656 Y279.542 E.0585
G1 X242.612 Y279.88 E.04088
G1 X240.728 Y280.244 E.07145
G1 X239.273 Y280.328 E.05431
G1 X237.437 Y280.192 E.06857
G1 X235.857 Y279.85 E.06018
G1 X234.085 Y279.205 E.07027
G1 X232.785 Y278.523 E.05468
G1 X231.874 Y277.926 E.04054
G1 X230.324 Y276.614 E.07566
G1 X223.386 Y269.676 E.36544
G1 X222 Y268.026 E.08028
G1 X221.393 Y267.078 E.04192
G1 X220.799 Y265.935 E.04798
G1 X220.091 Y263.957 E.07823
G1 X219.812 Y262.627 E.05062
G1 X219.686 Y261.482 E.04292
G1 X219.671 Y260.291 E.04434
G1 X219.915 Y258.204 E.07826
G1 X220.207 Y257.051 E.04432
G1 X220.724 Y255.66 E.05526
G1 X221.604 Y253.989 E.07034
G1 X222.857 Y252.327 E.07754
G1 X238.552 Y234.595 E.88199
G1 X238.894 Y234.898 F36000
G1 F3000
G1 X238.912 Y234.878 E.00101
G1 X240.375 Y233.392 E.07766
G1 X241.997 Y231.997 E.07968
G1 X243.592 Y230.837 E.07345
G1 X245.663 Y229.593 E.08998
G1 X247.54 Y228.669 E.07793
G1 X249.663 Y227.855 E.08468
G1 X251.72 Y227.264 E.07971
G1 X253.908 Y226.833 E.08305
G1 X255.913 Y226.61 E.07516
G1 X257.9 Y226.549 E.07403
G1 X260.328 Y226.683 E.09056
G1 X262.652 Y227.035 E.08756
G1 X263.868 Y227.306 E.04639
G1 X265.374 Y227.774 E.05877
G1 X266.434 Y228.236 E.04304
G1 X267.741 Y228.991 E.05622
G1 X269.019 Y229.974 E.06006
G1 X269.56 Y230.485 E.02772
G1 X270.586 Y231.667 E.05832
G1 X271.329 Y232.775 E.04965
G1 X271.884 Y233.829 E.04436
G1 X272.54 Y235.594 E.07016
G1 X273.114 Y238.207 E.09964
G1 X273.401 Y240.772 E.09613
G1 X273.428 Y243.246 E.09214
G1 X273.18 Y245.958 E.10145
G1 X272.7 Y248.406 E.09293
G1 X271.991 Y250.752 E.09128
G1 X271.147 Y252.834 E.08367
G1 X270.244 Y254.621 E.07458
G1 X269.102 Y256.481 E.0813
G1 X267.727 Y258.327 E.08571
G1 X266.249 Y259.984 E.08273
G1 X264.793 Y261.362 E.07466
G1 X246.507 Y277.49 E.90816
G1 X244.883 Y278.497 E.07114
G1 X243.499 Y279.113 E.05644
G1 X242.486 Y279.441 E.03966
G1 X240.681 Y279.789 E.06846
G1 X239.271 Y279.87 E.05263
G1 X237.501 Y279.74 E.0661
G1 X235.979 Y279.41 E.05801
G1 X234.275 Y278.789 E.06755
G1 X233.023 Y278.133 E.05262
G1 X232.143 Y277.556 E.03922
G1 X230.647 Y276.291 E.07297
G1 X223.709 Y269.353 E.36544
G1 X222.375 Y267.764 E.07727
G1 X221.786 Y266.843 E.04073
G1 X221.214 Y265.744 E.04617
G1 X220.534 Y263.843 E.07519
G1 X220.264 Y262.56 E.04882
G1 X220.142 Y261.452 E.04153
G1 X220.128 Y260.303 E.04279
G1 X220.362 Y258.297 E.07521
G1 X220.645 Y257.183 E.04283
G1 X221.143 Y255.841 E.0533
G1 X221.993 Y254.23 E.06785
G1 X223.199 Y252.629 E.07465
G1 X238.868 Y234.928 E.88049
; printing object MK3SMMU2S_Benchy_1 id:0 copy 0
G1 E-.8 F7200
EXCLUDE_OBJECT_START NAME=MK3SMMU2S_Benchy_1_id_0_copy_0
G1 Z.219 F36000
G1 X260.746 Y238.583 Z.219
G1 Z.2
G1 E.8 F7200
;TYPE:Inner wall
;WIDTH:0.435034
G1 F4800
G1 X261.261 Y238.743 E.01724
G1 X261.349 Y239.012 E.00907
;WIDTH:0.434441
G1 X261.489 Y239.603 E.01937
;WIDTH:0.438192
G1 X261.598 Y240.195 E.01938
G1 X261.211 Y240.297 E.01291
G1 X261.091 Y239.605 E.02261
;WIDTH:0.435034
G1 X260.931 Y238.958 E.0213
G1 X260.764 Y238.619 E.01209
G1 E-.8 F7200
G1 Z.219 F36000
G1 X259.942 Y238.006 Z.219
G1 Z.2
G1 E.8 F7200
;WIDTH:0.549472
G1 F4800
G1 X259.972 Y238.006 E.00124
;WIDTH:0.499999
G1 X260.538 Y238.1 E.02138
G1 X261.181 Y238.247 E.02455
G1 X261.522 Y238.398 E.0139
G1 X261.693 Y238.644 E.01116
G1 X261.892 Y239.447 E.03083
G1 X262.125 Y240.692 E.04717
G1 X261.871 Y240.609 E.00997
G1 X261.652 Y240.615 E.00814
G1 X261.345 Y240.698 E.01184
G1 X260.855 Y240.969 E.02085
G1 X260.801 Y240.433 E.02008
G1 X260.677 Y239.701 E.02765
G1 X260.561 Y239.198 E.01923
G1 X260.428 Y238.865 E.01334
G1 X260.1 Y238.44 E.01999
;WIDTH:0.549472
G1 X259.899 Y238.294 E.01025
;WIDTH:0.598945
G1 X259.698 Y238.149 E.01125
;WIDTH:0.648418
G1 X259.497 Y238.003 E.01225
G1 X259.655 Y238.004 E.00782
;WIDTH:0.598945
G1 X259.813 Y238.005 E.00718
;WIDTH:0.549472
G1 X259.902 Y238.006 E.00364
G1 E-.8 F7200
G1 Z.219 F36000
G1 X257.781 Y238.273 Z.219
G1 Z.2
G1 E.8 F7200
;WIDTH:0.499999
G1 F4800
G1 X256.356 Y239.733 E.07598
G1 X256.064 Y240.184 E.02002
G1 X255.919 Y240.595 E.01624
G1 X255.606 Y240.699 E.0123
G1 X255.223 Y240.888 E.01588
G1 X254.918 Y241.202 E.01631
G1 X254.714 Y241.545 E.01486
G1 X254.61 Y242.095 E.02085
G1 X254.613 Y242.413 E.01184
G1 X254.06 Y242.454 E.02065
G1 X253.72 Y242.55 E.01315
G1 X253.259 Y242.82 E.01991
G1 X252.998 Y243.08 E.01372
G1 X252.727 Y243.52 E.01923
G1 X252.633 Y243.885 E.01406
G1 X252.3 Y243.961 E.01272
G1 X251.96 Y244.134 E.01421
G1 X251.621 Y244.494 E.01843
G1 X251.423 Y244.843 E.01493
G1 X251.33 Y245.321 E.01814
G1 X251.096 Y245.349 E.0088
G1 X250.634 Y245.533 E.01852
G1 X250.327 Y245.734 E.01368
G1 X250.191 Y245.883 E.00751
G1 X249.917 Y246.323 E.0193
G1 X249.783 Y246.773 E.0175
G1 X249.774 Y247.241 E.01742
G1 X249.833 Y247.485 E.00936
;WIDTH:0.549013
G1 X249.95 Y247.776 E.01292
;WIDTH:0.598027
G1 X250.067 Y248.066 E.01417
G1 X250.598 Y248.499 E.03097
;WIDTH:0.603415
G1 X250.81 Y248.606 E.01087
;WIDTH:0.6323
G1 X251.022 Y248.714 E.01143
G1 X251.539 Y248.883 E.02611
G1 X251.053 Y249.1 E.02557
G1 X250.75 Y249.335 E.01845
G1 X250.56 Y249.148 E.01279
G1 X250.362 Y248.989 E.01221
;WIDTH:0.60097
G1 X250.164 Y248.83 E.01156
;WIDTH:0.598027
G1 X249.691 Y248.469 E.02692
G1 X249.606 Y248.434 E.00414
;WIDTH:0.569341
G1 X249.522 Y248.398 E.00393
;WIDTH:0.540655
G1 X248.812 Y248.087 E.03145
;WIDTH:0.499999
G1 X248.283 Y247.95 E.02032
G1 X247.8 Y247.87 E.01824
G1 X246.915 Y247.929 E.03306
G1 X246.314 Y248.125 E.02354
G1 X245.79 Y248.411 E.02223
G1 X245.348 Y248.735 E.02041
G1 X244.765 Y249.258 E.02916
G1 X243.906 Y250.118 E.04527
G1 X243.676 Y250.451 E.01509
G1 X243.457 Y250.943 E.02007
G1 X243.398 Y251.28 E.01273
G1 X243.425 Y251.653 E.01391
G1 X243.063 Y251.658 E.01351
G1 X242.501 Y251.771 E.02135
G1 X241.885 Y252.055 E.02524
G1 X241.247 Y252.539 E.02985
G1 X240.697 Y253.147 E.03053
G1 X240.407 Y253.613 E.02043
G1 X240.268 Y253.93 E.01288
G1 X240.118 Y254.455 E.02033
G1 X240 Y254.463 E.00441
G1 X239.611 Y254.587 E.01522
G1 X239.13 Y254.899 E.02135
G1 X236.784 Y257.255 E.12385
G1 X236.314 Y257.671 E.02337
G1 X236.016 Y258.116 E.01993
G1 X235.87 Y258.467 E.01416
G1 X235.846 Y258.868 E.01497
G1 X235.488 Y258.923 E.01351
G1 X235.158 Y259.026 E.01287
G1 X234.438 Y259.422 E.03059
G1 X233.725 Y260.075 E.03601
G1 X233.359 Y260.56 E.02261
G1 X233.221 Y260.798 E.01026
G1 X232.99 Y261.336 E.02183
G1 X232.859 Y261.924 E.02245
G1 X232.102 Y261.169 E.03982
G1 X231.893 Y260.888 E.01305
G1 X231.869 Y260.602 E.01068
G1 X232.014 Y260.355 E.01066
G1 X247.478 Y242.879 E.86916
G1 X248.222 Y242.103 E.04005
G1 X248.797 Y241.579 E.029
G1 X249.3 Y241.165 E.02426
G1 X249.789 Y240.801 E.02268
G1 X250.691 Y240.209 E.04019
G1 X251.817 Y239.603 E.04763
G1 X252.323 Y239.371 E.02072
G1 X252.872 Y239.152 E.02204
G1 X253.497 Y238.932 E.02467
G1 X254.183 Y238.731 E.02663
G1 X255.294 Y238.483 E.04239
G1 X255.989 Y238.377 E.0262
G1 X257.001 Y238.288 E.03783
G1 X257.741 Y238.274 E.02758
G1 E-.8 F7200
G1 Z.219 F36000
G1 X259.186 Y237.967 Z.219
G1 Z.2
G1 E.8 F7200
;WIDTH:0.640504
G1 F4800
G1 X259.025 Y238.022 E.0083
;WIDTH:0.593669
G1 X258.864 Y238.076 E.00765
;WIDTH:0.546834
G1 X258.702 Y238.131 E.007
;WIDTH:0.499999
G1 X258.258 Y238.442 E.02019
G1 X256.854 Y239.853 E.07415
G1 X256.531 Y240.286 E.02011
G1 X256.375 Y240.666 E.01531
G1 X256.344 Y241.049 E.01432
G1 X256.21 Y241.034 E.00504
G1 X255.682 Y241.154 E.02017
G1 X255.392 Y241.352 E.01307
G1 X255.142 Y241.706 E.01614
G1 X255.063 Y242.157 E.01705
G1 X255.111 Y242.618 E.01726
G1 X255.314 Y243.152 E.02131
G1 X254.954 Y242.965 E.01514
G1 X254.51 Y242.864 E.01695
G1 X253.991 Y242.934 E.0195
G1 X253.542 Y243.179 E.01905
G1 X253.233 Y243.525 E.01727
G1 X253.099 Y243.825 E.01223
G1 X253.078 Y244.302 E.01778
G1 X252.828 Y244.311 E.00932
G1 X252.305 Y244.454 E.02018
G1 X252.045 Y244.698 E.01332
G1 X251.855 Y244.994 E.0131
G1 X251.766 Y245.496 E.01898
G1 X251.788 Y245.795 E.01118
G1 X251.359 Y245.775 E.016
G1 X251.081 Y245.834 E.01059
G1 X250.636 Y246.071 E.01878
G1 X250.442 Y246.308 E.01138
G1 X250.254 Y246.739 E.01753
G1 X250.228 Y247.184 E.0166
G1 X250.337 Y247.535 E.01369
G1 X250.455 Y247.742 E.0089
G1 X250.871 Y248.087 E.02012
G1 X251.388 Y248.289 E.02064
G1 X252.473 Y248.593 E.042
G1 X252.522 Y248.854 E.00988
G1 X252.692 Y249.38 E.02058
