; generated by SuperSlicer 2.5.59.13 on 2024-09-14 at 20:39:12 UTC


;
;

;
;
; Generic print settings recomended by RatRig, you may change them.

; external perimeters extrusion width = 0.50mm
; perimeters extrusion width = 0.50mm
; infill extrusion width = 0.50mm
; solid infill extrusion width = 0.50mm
; top infill extrusion width = 0.50mm
; first layer extrusion width = 0.50mm

; external perimeters extrusion width = 0.50mm
; perimeters extrusion width = 0.50mm
; infill extrusion width = 0.50mm
; solid infill extrusion width = 0.50mm
; top infill extrusion width = 0.50mm
; first layer extrusion width = 0.50mm

; object:{"name":"MK3SMMU2S_Benchy_1","id":"MK3SMMU2S_Benchy_1 id:0 copy 0","object_center":[150.000000,150.000000,0.000000],"boundingbox_center":[150.000000,150.000000,24.000000],"boundingbox_size":[50.828266,50.828266,48.000000]}
EXCLUDE_OBJECT_DEFINE NAME=MK3SMMU2S_Benchy_1_id_0_copy_0 CENTER=150.000000,150.000000 POLYGON=[[124.59,160.42],[124.59,160.31],[124.59,160.25],[124.60,160.18],[124.61,160.10],[124.61,160.06],[124.62,160.00],[124.63,159.94],[124.67,159.80],[124.69,159.75],[124.71,159.69],[124.72,159.66],[124.73,159.64],[124.75,159.58],[124.80,159.46],[124.83,159.41],[124.86,159.35],[124.93,159.24],[124.95,159.21],[125.05,159.07],[141.94,136.72],[142.04,136.59],[142.20,136.38],[142.50,135.99],[142.54,135.93],[142.71,135.72],[143.06,135.30],[143.17,135.16],[143.48,134.79],[143.91,134.29],[143.96,134.23],[144.37,133.77],[144.48,133.65],[144.79,133.32],[144.87,133.23],[144.92,133.18],[145.13,132.96],[145.31,132.78],[145.49,132.59],[145.63,132.45],[145.85,132.22],[146.16,131.92],[146.48,131.61],[146.73,131.37],[146.81,131.30],[147.05,131.07],[147.38,130.78],[147.73,130.47],[147.95,130.28],[148.09,130.16],[148.17,130.09],[148.36,129.93],[148.41,129.89],[148.44,129.87],[149.03,129.44],[149.08,129.40],[149.54,129.13],[149.86,128.93],[150.13,128.78],[150.48,128.58],[150.72,128.45],[150.91,128.35],[151.11,128.24],[151.32,128.13],[151.51,128.03],[151.71,127.93],[151.72,127.93],[151.92,127.83],[152.16,127.71],[152.38,127.61],[152.53,127.54],[152.73,127.45],[152.94,127.35],[153.14,127.26],[153.56,127.09],[153.82,126.98],[154.03,126.89],[154.25,126.81],[154.57,126.68],[154.79,126.60],[155.08,126.49],[155.30,126.42],[155.72,126.27],[155.93,126.20],[156.36,126.06],[156.79,125.93],[157.22,125.80],[157.65,125.68],[158.09,125.57],[158.53,125.47],[158.74,125.42],[158.97,125.37],[159.18,125.32],[159.40,125.28],[159.85,125.18],[160.07,125.14],[160.51,125.07],[160.73,125.03],[161.18,124.96],[161.41,124.92],[161.86,124.86],[162.09,124.83],[162.31,124.81],[162.53,124.78],[163.00,124.73],[163.46,124.69],[164.15,124.65],[164.37,124.63],[164.76,124.62],[164.99,124.61],[165.22,124.60],[165.68,124.59],[166.14,124.59],[166.37,124.59],[166.84,124.60],[167.30,124.61],[167.57,124.62],[167.99,124.64],[168.22,124.65],[168.68,124.68],[169.37,124.74],[170.06,124.82],[170.30,124.84],[170.53,124.87],[170.76,124.90],[171.00,124.94],[171.68,125.04],[172.14,125.12],[172.61,125.20],[172.89,125.26],[173.01,125.29],[173.13,125.33],[173.18,125.35],[173.24,125.37],[173.30,125.39],[173.45,125.46],[173.62,125.55],[173.67,125.58],[173.87,125.72],[173.96,125.80],[174.02,125.85],[174.10,125.93],[174.14,125.97],[174.18,126.02],[174.26,126.12],[174.34,126.21],[174.37,126.26],[174.44,126.36],[174.47,126.42],[174.55,126.58],[174.63,126.75],[174.67,126.86],[174.74,127.09],[174.79,127.37],[174.87,127.83],[174.95,128.29],[175.06,128.98],[175.11,129.36],[175.12,129.45],[175.18,129.91],[175.23,130.38],[175.28,130.84],[175.33,131.54],[175.37,132.18],[175.38,132.41],[175.40,132.87],[175.41,133.57],[175.41,134.51],[175.39,134.95],[175.39,135.18],[175.34,136.10],[175.29,136.78],[175.26,137.02],[175.24,137.24],[175.19,137.70],[175.14,138.15],[175.10,138.38],[175.07,138.62],[175.04,138.84],[175.01,139.06],[174.97,139.28],[174.89,139.73],[174.81,140.19],[174.72,140.64],[174.67,140.86],[174.57,141.32],[174.46,141.76],[174.41,141.98],[174.35,142.21],[174.23,142.65],[174.10,143.09],[174.01,143.40],[173.81,144.03],[173.74,144.24],[173.59,144.68],[173.44,145.11],[173.36,145.31],[173.19,145.77],[173.12,145.93],[173.03,146.15],[172.91,146.44],[172.78,146.76],[172.63,147.09],[172.41,147.57],[172.32,147.78],[172.12,148.18],[171.92,148.59],[171.81,148.78],[171.69,149.01],[171.58,149.22],[171.49,149.38],[171.35,149.64],[171.24,149.84],[171.16,149.97],[170.82,150.56],[170.59,150.93],[170.31,151.34],[170.24,151.43],[170.16,151.53],[169.96,151.76],[169.75,152.02],[169.49,152.31],[169.20,152.64],[168.85,153.03],[168.46,153.44],[168.34,153.56],[168.04,153.87],[168.01,153.91],[167.28,154.64],[167.08,154.83],[166.76,155.14],[166.46,155.41],[166.25,155.61],[165.59,156.19],[165.08,156.63],[164.65,156.99],[164.07,157.45],[163.74,157.71],[163.35,158.01],[140.89,174.98],[140.82,175.03],[140.75,175.08],[140.68,175.12],[140.63,175.15],[140.58,175.17],[140.47,175.23],[140.42,175.25],[140.31,175.29],[140.20,175.33],[140.08,175.36],[140.01,175.37],[139.82,175.40],[139.73,175.41],[139.63,175.41],[139.55,175.41],[139.46,175.41],[139.34,175.39],[139.23,175.38],[139.16,175.37],[139.07,175.34],[139.05,175.34],[138.99,175.32],[138.92,175.30],[138.82,175.26],[138.71,175.21],[138.56,175.14],[138.50,175.10],[138.41,175.04],[138.36,175.01],[138.29,174.96],[138.25,174.93],[138.17,174.85],[125.17,161.85],[125.16,161.85],[125.12,161.80],[125.09,161.76],[125.04,161.71],[124.98,161.62],[124.95,161.57],[124.90,161.50],[124.85,161.42],[124.84,161.39],[124.79,161.29],[124.77,161.26],[124.75,161.20],[124.70,161.08],[124.69,161.06],[124.69,161.04],[124.68,161.01],[124.65,160.93],[124.62,160.78],[124.62,160.75],[124.60,160.66],[124.59,160.56],[124.59,160.48],[124.59,160.43],[124.59,160.42]]
; plater:{"center":[150.000000,150.000000,0.000000],"boundingbox_center":[150.000000,150.000000,24.000000],"boundingbox_size":[50.828266,50.828266,48.000000]}

M73 P0 R103
M107
;TYPE:Custom
START_PRINT EXTRUDER_TEMP=260,260 EXTRUDER_OTHER_LAYER_TEMP=260,260 BED_TEMP=110 INITIAL_TOOL=1 TOTAL_LAYER_COUNT=192 X0=128.705 Y0=135.118 X1=164.969 Y1=171.292 TOTAL_TOOLSHIFTS=141 FIRST_X=146.161 FIRST_Y=140.026 MIN_X=124.812 MAX_X=175.18 USED_TOOLS=1,0 WIPE_ACCEL=0

M107
G21 ; set units to millimeters
G90 ; use absolute coordinates
M83 ; use relative distances for extrusion
; Removed by RatOS post processor: T1
SET_PRESSURE_ADVANCE ADVANCE=0.03

M104 S260 T0 ; set temperature
M109 S260 T1 ; set temperature and wait for it to be reached
M190 S110 ; set bed temperature and wait for it to be reached
;LAYER_CHANGE
;Z:0.3
;HEIGHT:0.3
;0.3
G1 E-0.8 F7200
M73 P0 R102
G1 Z0.3 F24000
;AFTER_LAYER_CHANGE
;0.3
G92 E0
_ON_LAYER_CHANGE LAYER=1
G1 Z0.5
M204 S2000
G1 X146.161 Y140.026
G1 Z0.3
G1 E0.8 F7200
;TYPE:Skirt
;WIDTH:0.5
M107
G1 F4800
G1 X146.9 Y139.352 E0.05051
G1 X147.483 Y138.873 E0.03813
G1 X148.087 Y138.421 E0.03813
G1 X149.219 Y137.679 E0.06839
G1 X150.536 Y136.97 E0.07558
G1 X151.19 Y136.671 E0.03634
G1 X151.864 Y136.403 E0.03662
G1 X152.622 Y136.136 E0.04062
G1 X153.423 Y135.901 E0.04216
G1 X154.744 Y135.602 E0.06847
G1 X155.361 Y135.502 E0.0316
G1 X156.174 Y135.404 E0.04133
G1 X156.876 Y135.355 E0.03558
G1 X157.803 Y135.336 E0.04687
G1 X158.825 Y135.371 E0.05164
G1 X159.823 Y135.466 E0.05065
G1 X161.019 Y135.662 E0.06127
G1 X162.11 Y135.92 E0.05664
G1 X162.471 Y136.066 E0.01965
G1 X162.815 Y136.249 E0.0197
G1 X163.308 Y136.634 E0.0316
G1 X163.571 Y136.93 E0.02003
G1 X163.807 Y137.287 E0.02165
G1 X164.059 Y137.858 E0.0315
G1 X164.351 Y139.077 E0.06334
G1 X164.557 Y140.258 E0.06058
G1 X164.667 Y140.683 E0.02218
G1 X164.737 Y141.367 E0.03474
G1 X164.751 Y142.531 E0.05885
G1 X164.636 Y143.337 E0.04114
G1 X164.478 Y144.725 E0.07058
G1 X164.339 Y145.513 E0.04041
G1 X164.144 Y146.387 E0.04525
G1 X163.714 Y147.784 E0.07385
G1 X163.515 Y148.324 E0.02909
G1 X163.124 Y149.232 E0.04998
G1 X162.84 Y149.82 E0.03299
G1 X162.37 Y150.672 E0.04914
G1 X161.749 Y151.656 E0.0588
G1 X161.127 Y152.498 E0.05289
G1 X160.362 Y153.406 E0.06002
G1 X159.553 Y154.238 E0.05863
G1 X141.47 Y170.255 E1.22061
G1 X141.11 Y170.528 E0.02284
G1 X140.698 Y170.751 E0.02367
G1 X140.258 Y170.929 E0.02398
G1 X139.727 Y171.052 E0.02755
G1 X139.185 Y171.074 E0.0274
G1 X138.651 Y171.016 E0.02713
G1 X138.163 Y170.879 E0.02565
G1 X137.652 Y170.647 E0.02833
G1 X137.254 Y170.389 E0.02397
G1 X136.901 Y170.09 E0.02338
G1 X134.807 Y168 E0.1495
G1 X134.487 Y167.697 E0.02225
G1 X133.756 Y167.048 E0.04941
G1 X133.356 Y166.663 E0.02805
G1 X132.956 Y166.255 E0.02888
G1 X131.982 Y165.177 E0.0734
G1 X129.913 Y163.102 E0.14806
G1 X129.626 Y162.769 E0.02223
G1 X129.368 Y162.373 E0.02388
G1 X129.155 Y161.942 E0.02425
G1 X129.009 Y161.481 E0.02448
G1 X128.924 Y160.963 E0.0265
G1 X128.923 Y160.479 E0.02445
G1 X128.997 Y159.97 E0.02603
G1 X129.146 Y159.506 E0.02457
G1 X129.339 Y159.086 E0.02338
G1 X129.724 Y158.54 E0.03377
G1 X145.304 Y140.921 E1.18839
G1 X146.12 Y140.069 E0.05963
M107
G1 X146.471 Y140.332 F24000
M107
G1 F4800
G1 X147.181 Y139.685 E0.04855
G1 X147.748 Y139.219 E0.03708
G1 X148.343 Y138.774 E0.03754
G1 X149.434 Y138.058 E0.06594
G1 X150.724 Y137.363 E0.07404
G1 X151.357 Y137.074 E0.03516
G1 X152.012 Y136.812 E0.03568
G1 X152.75 Y136.553 E0.03952
G1 X153.539 Y136.321 E0.04153
G1 X154.82 Y136.031 E0.06639
G1 X155.418 Y135.934 E0.03059
G1 X156.21 Y135.839 E0.0403
G1 X156.89 Y135.79 E0.03448
G1 X157.795 Y135.772 E0.04571
G1 X158.79 Y135.805 E0.05033
G1 X159.759 Y135.897 E0.04919
G1 X160.941 Y136.091 E0.06053
G1 X161.962 Y136.33 E0.05298
G1 X162.296 Y136.465 E0.0182
G1 X162.593 Y136.624 E0.01698
G1 X162.995 Y136.938 E0.02581
G1 X163.235 Y137.207 E0.0182
G1 X163.433 Y137.511 E0.01832
G1 X163.64 Y137.979 E0.02585
G1 X163.925 Y139.172 E0.06199
G1 X164.131 Y140.35 E0.06045
G1 X164.241 Y140.776 E0.02222
G1 X164.303 Y141.4 E0.0317
G1 X164.318 Y142.487 E0.0549
G1 X164.204 Y143.282 E0.04059
G1 X164.046 Y144.669 E0.07055
G1 X163.913 Y145.423 E0.03866
G1 X163.721 Y146.284 E0.04458
G1 X163.304 Y147.639 E0.07163
G1 X163.112 Y148.157 E0.02793
G1 X162.73 Y149.047 E0.04897
G1 X162.456 Y149.615 E0.03183
G1 X161.992 Y150.455 E0.04852
G1 X161.385 Y151.416 E0.05743
G1 X160.789 Y152.222 E0.05064
G1 X160.034 Y153.12 E0.05927
G1 X159.258 Y153.917 E0.05622
G1 X141.201 Y169.913 E1.21893
G1 X140.86 Y170.17 E0.02157
G1 X140.522 Y170.352 E0.01942
G1 X140.141 Y170.509 E0.02083
G1 X139.686 Y170.617 E0.0236
G1 X139.213 Y170.639 E0.02392
G1 X138.75 Y170.592 E0.02355
G1 X138.325 Y170.474 E0.02224
G1 X137.875 Y170.273 E0.02493
G1 X137.503 Y170.031 E0.02241
G1 X137.202 Y169.776 E0.01995
G1 X135.111 Y167.688 E0.14934
G1 X134.782 Y167.376 E0.02289
G1 X134.048 Y166.725 E0.04955
G1 X133.661 Y166.351 E0.02721
G1 X133.276 Y165.959 E0.02775
G1 X132.298 Y164.877 E0.07372
G1 X130.227 Y162.8 E0.1482
G1 X129.982 Y162.518 E0.01889
G1 X129.752 Y162.166 E0.02122
G1 X129.565 Y161.794 E0.02107
G1 X129.436 Y161.392 E0.02132
G1 X129.359 Y160.944 E0.02295
G1 X129.359 Y160.495 E0.02269
G1 X129.425 Y160.052 E0.02262
G1 X129.556 Y159.654 E0.02118
G1 X129.726 Y159.288 E0.02041
G1 X130.058 Y158.82 E0.029
G1 X145.627 Y141.213 E1.18759
G1 X146.429 Y140.376 E0.05861
M107
G1 X146.78 Y140.639 F24000
M107
G1 F4800
G1 X147.462 Y140.018 E0.04658
G1 X148.02 Y139.558 E0.03655
G1 X148.598 Y139.127 E0.03643
G1 X149.649 Y138.437 E0.06351
G1 X150.912 Y137.757 E0.07249
G1 X151.523 Y137.476 E0.034
G1 X152.161 Y137.222 E0.03472
G1 X152.879 Y136.969 E0.03842
G1 X153.655 Y136.741 E0.04089
G1 X154.897 Y136.46 E0.06433
G1 X155.475 Y136.366 E0.02958
G1 X156.246 Y136.273 E0.03927
G1 X156.905 Y136.226 E0.03337
G1 X157.786 Y136.207 E0.04454
G1 X158.769 Y136.24 E0.04969
G1 X159.696 Y136.328 E0.04706
G1 X160.864 Y136.52 E0.0598
G1 X161.815 Y136.741 E0.04933
G1 X162.122 Y136.865 E0.01672
G1 X162.369 Y136.999 E0.01422
G1 X162.685 Y137.244 E0.02019
G1 X162.879 Y137.459 E0.01467
G1 X163.058 Y137.734 E0.01658
G1 X163.221 Y138.099 E0.0202
G1 X163.5 Y139.266 E0.06063
G1 X163.705 Y140.442 E0.06032
G1 X163.815 Y140.868 E0.02224
G1 X163.868 Y141.432 E0.02861
G1 X163.884 Y142.442 E0.05104
G1 X163.772 Y143.227 E0.04003
G1 X163.614 Y144.613 E0.07052
G1 X163.486 Y145.332 E0.03691
G1 X163.297 Y146.18 E0.0439
G1 X162.893 Y147.493 E0.06943
G1 X162.71 Y147.99 E0.02676
G1 X162.335 Y148.863 E0.04797
G1 X162.072 Y149.41 E0.03067
G1 X161.613 Y150.239 E0.04789
G1 X161.021 Y151.177 E0.05605
G1 X160.443 Y151.958 E0.04908
G1 X159.706 Y152.833 E0.05783
G1 X158.963 Y153.596 E0.05382
G1 X140.93 Y169.572 E1.21736
G1 X140.638 Y169.795 E0.01856
G1 X140.343 Y169.955 E0.01692
G1 X140.02 Y170.09 E0.01774
G1 X139.645 Y170.183 E0.01952
G1 X139.209 Y170.203 E0.02202
G1 X138.846 Y170.166 E0.01843
G1 X138.486 Y170.069 E0.01887
G1 X138.098 Y169.898 E0.02144
G1 X137.752 Y169.674 E0.0208
G1 X137.504 Y169.461 E0.01651
G1 X135.414 Y167.376 E0.14919
G1 X135.076 Y167.055 E0.02354
G1 X134.341 Y166.402 E0.04969
G1 X133.965 Y166.04 E0.02637
G1 X133.596 Y165.664 E0.02663
G1 X132.613 Y164.577 E0.07403
G1 X130.54 Y162.498 E0.14836
G1 X130.338 Y162.265 E0.0156
G1 X130.134 Y161.958 E0.01862
G1 X129.974 Y161.643 E0.01788
G1 X129.862 Y161.3 E0.01818
G1 X129.795 Y160.924 E0.0193
G1 X129.794 Y160.511 E0.02086
G1 X129.853 Y160.138 E0.01911
G1 X129.965 Y159.804 E0.01777
G1 X130.112 Y159.491 E0.01751
G1 X130.392 Y159.1 E0.0243
G1 X145.951 Y141.505 E1.1868
G1 X146.739 Y140.682 E0.05757
M107
G1 X147.087 Y140.948 F24000
M107
G1 F4800
G1 X147.736 Y140.356 E0.0444
G1 X148.295 Y139.896 E0.03656
G1 X148.856 Y139.478 E0.03536
G1 X149.868 Y138.813 E0.06116
G1 X151.096 Y138.151 E0.07053
G1 X151.692 Y137.878 E0.03313
G1 X152.313 Y137.63 E0.03376
G1 X153.004 Y137.386 E0.03705
G1 X153.774 Y137.16 E0.04057
G1 X154.97 Y136.889 E0.06193
G1 X155.533 Y136.797 E0.02885
G1 X156.28 Y136.707 E0.03799
G1 X156.917 Y136.661 E0.03226
G1 X157.774 Y136.643 E0.04335
G1 X158.744 Y136.675 E0.04904
G1 X159.637 Y136.76 E0.04529
G1 X160.783 Y136.948 E0.05871
G1 X161.676 Y137.154 E0.04629
G1 X161.94 Y137.261 E0.01442
G1 X162.151 Y137.376 E0.01213
G1 X162.383 Y137.558 E0.01488
G1 X162.529 Y137.719 E0.01102
G1 X162.689 Y137.965 E0.01478
G1 X162.793 Y138.191 E0.01261
G1 X163.074 Y139.358 E0.06063
G1 X163.279 Y140.535 E0.06038
G1 X163.391 Y140.97 E0.0227
G1 X163.434 Y141.466 E0.02517
G1 X163.45 Y142.406 E0.04751
G1 X163.34 Y143.171 E0.03903
G1 X163.181 Y144.56 E0.07066
G1 X163.06 Y145.245 E0.03512
G1 X162.873 Y146.081 E0.04331
G1 X162.485 Y147.34 E0.06658
G1 X162.306 Y147.827 E0.02617
G1 X161.941 Y148.676 E0.04672
G1 X161.689 Y149.202 E0.02946
G1 X161.237 Y150.02 E0.04724
G1 X160.659 Y150.934 E0.05464
G1 X160.099 Y151.69 E0.04753
G1 X159.38 Y152.543 E0.05639
G1 X158.671 Y153.273 E0.05141
G1 X140.643 Y169.243 E1.21698
G1 X140.422 Y169.416 E0.01417
G1 X140.167 Y169.556 E0.0147
G1 X139.901 Y169.671 E0.01464
G1 X139.613 Y169.747 E0.01504
G1 X139.198 Y169.767 E0.02101
G1 X138.919 Y169.737 E0.01418
G1 X138.651 Y169.665 E0.014
G1 X138.311 Y169.518 E0.01871
G1 X138.008 Y169.321 E0.01827
G1 X137.804 Y169.145 E0.01366
G1 X135.718 Y167.063 E0.14888
G1 X135.371 Y166.734 E0.02419
G1 X134.635 Y166.081 E0.0497
G1 X134.269 Y165.728 E0.02572
G1 X133.915 Y165.367 E0.02554
G1 X132.929 Y164.277 E0.07424
G1 X130.846 Y162.187 E0.14909
G1 X130.672 Y161.985 E0.01352
G1 X130.513 Y161.742 E0.01467
G1 X130.379 Y161.481 E0.01482
G1 X130.289 Y161.212 E0.01434
G1 X130.23 Y160.893 E0.01636
G1 X130.229 Y160.538 E0.01797
G1 X130.282 Y160.218 E0.01638
G1 X130.375 Y159.953 E0.01419
G1 X130.492 Y159.704 E0.01392
G1 X130.722 Y159.384 E0.01987
G1 X146.276 Y141.795 E1.18642
G1 X147.046 Y140.991 E0.05625
M107
G1 E-0.8 F7200
M204 S6000
G1 Z0.5 F24000
; printing object MK3SMMU2S_Benchy_1 id:0 copy 0
EXCLUDE_OBJECT_START NAME=MK3SMMU2S_Benchy_1_id_0_copy_0
; acceleration to travel
M204 S9000
G1 X140.582 Y163.981
; decel to extrusion
M204 S2000
G1 X139.146 Y169.09
; end travel
G1 Z0.3
G1 E0.8 F7200
;TYPE:External perimeter
M107
G1 F4800
G1 X139.035 Y169.078 E0.00561
G1 X138.865 Y169.031 E0.00892
G1 X138.636 Y168.933 E0.0126
G1 X138.405 Y168.782 E0.01394
G1 X138.261 Y168.658 E0.00958
G1 X136.182 Y166.583 E0.14842
G1 X134.738 Y165.253 E0.09921
G1 X134.403 Y164.91 E0.02423
