; generated by PrusaSlicer 2.8.0+win64 on 2024-09-06 at 08:32:07 UTC


;
;

;
;
; Generic print settings recomended by RatRig, you may change them.

; external perimeters extrusion width = 0.45mm
; perimeters extrusion width = 0.45mm
; infill extrusion width = 0.45mm
; solid infill extrusion width = 0.45mm
; top infill extrusion width = 0.45mm
; first layer extrusion width = 0.50mm

; external perimeters extrusion width = 0.45mm
; perimeters extrusion width = 0.45mm
; infill extrusion width = 0.45mm
; solid infill extrusion width = 0.45mm
; top infill extrusion width = 0.45mm
; first layer extrusion width = 0.50mm

M73 P0 R38
;TYPE:Custom
START_PRINT EXTRUDER_TEMP=260,260 EXTRUDER_OTHER_LAYER_TEMP=260,260 BED_TEMP=110 INITIAL_TOOL=1 TOTAL_LAYER_COUNT=239 X0=116.131 Y0=128.567 X1=177.217 Y1=166.69 TOTAL_TOOLSHIFTS=175 FIRST_X=120.006 FIRST_Y=133.853 MIN_X=116.349 MAX_X=183.031 USED_TOOLS=1,0 WIPE_ACCEL=0
G21 ; set units to millimeters
G90 ; use absolute coordinates
M83 ; use relative distances for extrusion
; Removed by RatOS post processor: T1
;Filament gcode
SET_PRESSURE_ADVANCE ADVANCE=0.025
M107
;LAYER_CHANGE
;Z:0.3
;HEIGHT:0.3
G1 E-.8 F7200
G1 Z.5 F3000
G1 X120.006 Y133.853 F30000
G1 Z.3 F3000
G1 E.8 F7200
M204 S1500
;TYPE:Skirt/Brim
;WIDTH:0.5
G1 F3000
G1 X121.096 Y132.888 E.07277
G1 X121.869 Y132.328 E.04771
G1 X123.55 Y131.392 E.09617
G1 X124.878 Y130.871 E.07131
G1 X125.918 Y130.577 E.05402
G1 X127.105 Y130.361 E.06031
G1 X151.547 Y128.83 E1.22416
G1 X153.704 Y128.79 E.10784
G1 X156.855 Y129.057 E.15807
G1 X158.384 Y129.331 E.07765
G1 X160.047 Y129.737 E.08557
G1 X163.008 Y130.758 E.15656
G1 X164.563 Y131.469 E.08547
G1 X166.08 Y132.286 E.08613
G1 X167.469 Y133.154 E.08187
G1 X168.768 Y134.088 E.07997
G1 X170.025 Y135.116 E.08117
G1 X171.242 Y136.25 E.08315
G1 X173.387 Y138.664 E.16142
G1 X174.497 Y140.195 E.09453
G1 X175.323 Y141.503 E.07733
G1 X176.116 Y143.127 E.09034
G1 X176.774 Y145.326 E.11474
G1 X176.977 Y146.9 E.07933
G1 X176.999 Y147.667 E.03836
G1 X176.891 Y149.229 E.07826
G1 X176.666 Y150.424 E.06078
G1 X176.27 Y151.733 E.06836
G1 X175.893 Y152.65 E.04956
G1 X174.756 Y154.67 E.11587
G1 X172.882 Y157.226 E.15843
G1 X170.919 Y159.328 E.14376
G1 X169.22 Y160.82 E.11302
G1 X167.329 Y162.197 E.11693
G1 X165.346 Y163.385 E.11555
G1 X163.223 Y164.409 E.11782
G1 X160.88 Y165.278 E.12491
G1 X158.517 Y165.901 E.12215
G1 X156.112 Y166.3 E.12186
G1 X153.879 Y166.464 E.11192
G1 X151.436 Y166.418 E.12214
G1 X126.902 Y164.871 E1.2288
G1 X125.824 Y164.658 E.05493
G1 X124.737 Y164.337 E.05665
G1 X122.808 Y163.496 E.10519
G1 X121.03 Y162.321 E.10653
G1 X119.91 Y161.309 E.07545
G1 X118.896 Y160.139 E.07739
G1 X117.9 Y158.606 E.09138
G1 X117.219 Y157.15 E.08035
G1 X116.779 Y155.803 E.07083
G1 X116.529 Y154.665 E.05824
G1 X116.349 Y152.574 E.10491
G1 X116.349 Y142.692 E.49396
G1 X116.406 Y141.539 E.0577
G1 X116.692 Y139.803 E.08795
G1 X117.106 Y138.406 E.07283
G1 X117.962 Y136.541 E.10257
G1 X118.619 Y135.499 E.06157
G1 X119.967 Y133.899 E.10458
M204 S10000
G1 X119.967 Y133.899 F30000
G1 X120.287 Y134.213
M204 S1500
G1 F3000
G1 X120.681 Y133.812 E.0281
G1 X122.109 Y132.692 E.09072
G1 X123.729 Y131.79 E.09268
G1 X125.018 Y131.284 E.06922
G1 X126.02 Y131 E.05206
G1 X127.159 Y130.794 E.05786
G1 X151.574 Y129.264 E1.22281
G1 X153.69 Y129.226 E.10579
G1 X156.788 Y129.487 E.15541
G1 X159.93 Y130.156 E.16058
G1 X162.841 Y131.16 E.15392
G1 X164.375 Y131.861 E.08431
G1 X165.859 Y132.661 E.08427
G1 X167.223 Y133.513 E.08039
G1 X168.505 Y134.435 E.07893
G1 X169.74 Y135.445 E.07975
G1 X170.933 Y136.557 E.08152
G1 X173.045 Y138.933 E.15891
G1 X173.962 Y140.184 E.07753
G1 X174.919 Y141.675 E.08856
G1 X175.713 Y143.293 E.09009
G1 X176.348 Y145.413 E.11062
G1 X176.564 Y147.667 E.11319
G1 X176.46 Y149.169 E.07526
G1 X176.242 Y150.322 E.05866
G1 X175.753 Y151.869 E.0811
G1 X175.161 Y153.142 E.07018
G1 X174.197 Y154.732 E.09294
G1 X172.544 Y156.95 E.13827
G1 X170.614 Y159.017 E.14136
G1 X168.943 Y160.484 E.11115
G1 X167.091 Y161.833 E.11453
G1 X165.141 Y163 E.1136
G1 X163.058 Y164.006 E.11563
G1 X160.753 Y164.861 E.12289
G1 X158.421 Y165.476 E.12055
G1 X156.064 Y165.867 E.11943
G1 X153.862 Y166.029 E.11037
G1 X151.462 Y165.983 E.11999
G1 X126.969 Y164.44 E1.22674
G1 X125.93 Y164.236 E.05293
G1 X124.877 Y163.925 E.05488
G1 X123.017 Y163.115 E.10141
G1 X121.305 Y161.983 E.10259
G1 X120.219 Y161.002 E.07315
G1 X119.241 Y159.872 E.0747
G1 X118.281 Y158.395 E.08805
G1 X117.623 Y156.987 E.07769
G1 X117.201 Y155.696 E.06789
G1 X116.959 Y154.594 E.0564
G1 X116.785 Y152.574 E.10135
G1 X116.84 Y141.577 E.54971
G1 X117.115 Y139.906 E.08465
G1 X117.514 Y138.556 E.07037
G1 X117.836 Y137.76 E.04292
G1 X118.395 Y136.661 E.06163
G1 X119.047 Y135.648 E.06022
G1 X119.761 Y134.749 E.05739
G1 X120.245 Y134.256 E.03453
M204 S10000
G1 E-.8 F7200
G1 X120.245 Y134.256 Z.5 F30000
G1 X157.711 Y148.677
G1 Z.3 F3000
G1 E.8 F7200
M204 S1500
;TYPE:External perimeter
;WIDTH:0.357486
G1 F3000
G1 X157.681 Y148.378 E.01011
G1 X157.938 Y148.242 E.00978
M204 S10000
G1 E-.8 F7200
G1 Z.5 F3000
G1 X155.006 Y146.221 F30000
G1 Z.3 F3000
G1 E.8 F7200
M204 S1500
;WIDTH:0.5
G1 F3000
G1 X155.053 Y146.486 E.01345
G1 X155.019 Y146.858 E.01867
G1 X154.823 Y147.223 E.02071
G1 X154.297 Y148.093 E.05082
G1 X154.221 Y148.282 E.01018
G1 X154.212 Y148.372 E.00452
G1 X154.259 Y148.515 E.00752
G1 X154.982 Y149.723 E.07037
G1 X155.1 Y149.994 E.01477
G1 X155.135 Y150.37 E.01888
G1 X155.066 Y150.641 E.01398
G1 X154.923 Y150.861 E.01312
G1 X154.706 Y151.013 E.01324
G1 X154.394 Y151.1 E.01619
G1 X154.246 Y151.098 E.0074
G1 X154.008 Y151.046 E.01218
G1 X153.85 Y150.959 E.00902
G1 X153.733 Y150.837 E.00845
G1 X153.534 Y150.529 E.01833
G1 X153.473 Y150.309 E.01141
G1 X153.338 Y150.045 E.01482
G1 X153.139 Y149.877 E.01302
G1 X152.945 Y150.246 E.02084
G1 X152.835 Y150.542 E.01578
G1 X152.54 Y150.92 E.02397
G1 X152.305 Y151.054 E.01352
G1 X152.033 Y151.05 E.0136
G1 X151.747 Y150.949 E.01516
G1 X151.584 Y150.82 E.01039
G1 X151.514 Y150.709 E.00656
G1 X151.417 Y150.423 E.0151
G1 X151.417 Y150.271 E.0076
G1 X151.441 Y150.12 E.00764
G1 X151.573 Y149.71 E.02153
G1 X151.973 Y148.899 E.0452
G1 X152.28 Y148.473 E.02625
G1 X152.316 Y148.395 E.00429
G1 X152.07 Y148.019 E.02246
G1 X151.549 Y147.092 E.05315
G1 X151.43 Y146.807 E.01544
G1 X151.385 Y146.566 E.01225
G1 X151.385 Y146.363 E.01015
G1 X151.514 Y146.088 E.01518
G1 X151.722 Y145.895 E.01418
G1 X151.876 Y145.821 E.00854
G1 X152.101 Y145.768 E.01155
G1 X152.226 Y145.748 E.00633
G1 X152.472 Y145.813 E.01272
G1 X152.622 Y145.903 E.00874
G1 X152.868 Y146.141 E.01711
G1 X152.981 Y146.435 E.01574
G1 X153.23 Y146.878 E.0254
G1 X153.371 Y146.731 E.01018
G1 X153.531 Y146.412 E.01784
G1 X153.546 Y146.312 E.00505
G1 X153.698 Y146.085 E.01366
G1 X153.962 Y145.867 E.01711
G1 X154.194 Y145.765 E.01267
G1 X154.451 Y145.762 E.01285
G1 X154.75 Y145.913 E.01674
G1 X154.973 Y146.173 E.01712
M204 S10000
G1 X155.034 Y146.568 F30000
G1 E-.8 F7200
G1 Z.5 F3000
G1 X157.757 Y147.979 F30000
G1 Z.3 F3000
G1 E.8 F7200
M204 S1500
G1 F3000
G1 X157.881 Y147.575 E.02112
G1 X157.98 Y147.087 E.02489
G1 X158.111 Y146.615 E.02449
G1 X158.255 Y146.301 E.01727
G1 X158.424 Y146.056 E.01488
G1 X158.616 Y145.879 E.01305
G1 X158.849 Y145.773 E.0128
G1 X159.08 Y145.774 E.01155
G1 X159.25 Y145.834 E.00901
G1 X159.45 Y145.973 E.01217
G1 X159.614 Y146.192 E.01368
G1 X159.706 Y146.624 E.02208
G1 X159.649 Y147.065 E.02223
G1 X159.218 Y148.346 E.06756
G1 X158.256 Y151.055 E.1437
G1 X157.658 Y152.511 E.07868
G1 X157.421 Y152.921 E.02367
G1 X157.285 Y153.078 E.01038
G1 X157.062 Y153.275 E.01487
G1 X156.783 Y153.429 E.01593
G1 X156.455 Y153.555 E.01756
G1 X155.949 Y153.649 E.02573
G1 X155.691 Y153.618 E.01299
G1 X155.5 Y153.537 E.01037
G1 X155.307 Y153.397 E.01192
G1 X155.194 Y153.246 E.00943
G1 X155.082 Y153.022 E.01252
G1 X155.033 Y152.826 E.0101
G1 X155.033 Y152.571 E.01275
G1 X155.099 Y152.331 E.01244
G1 X155.326 Y152.113 E.01573
G1 X155.446 Y152.058 E.0066
G1 X155.918 Y151.926 E.0245
G1 X156.039 Y151.869 E.00669
G1 X156.235 Y151.707 E.01271
G1 X156.342 Y151.525 E.01055
G1 X156.56 Y150.941 E.03116
G1 X156.755 Y150.553 E.02171
G1 X156.807 Y150.399 E.00812
G1 X156.764 Y150.185 E.01091
G1 X156.427 Y149.399 E.04275
G1 X155.893 Y147.952 E.0771
G1 X155.594 Y147.219 E.03957
G1 X155.529 Y146.997 E.01156
G1 X155.486 Y146.758 E.01214
G1 X155.491 Y146.34 E.0209
G1 X155.529 Y146.171 E.00866
G1 X155.621 Y146.014 E.0091
G1 X155.75 Y145.887 E.00905
G1 X156.039 Y145.761 E.01576
G1 X156.32 Y145.758 E.01405
G1 X156.642 Y145.849 E.01673
G1 X156.87 Y145.997 E.01359
G1 X157.03 Y146.192 E.01261
G1 X157.117 Y146.363 E.00959
G1 X157.398 Y147.525 E.05976
G1 X157.57 Y147.985 E.02455
G1 X157.697 Y147.981 E.00635
M204 S10000
G1 X157.865 Y147.618 F30000
G1 E-.8 F7200
G1 Z.5 F3000
G1 X132.574 Y143.363 F30000
G1 Z.3 F3000
G1 E.8 F7200
M204 S1500
;TYPE:Perimeter
G1 F3000
G1 X132.306 Y143.196 E.01578
G1 X131.65 Y142.957 E.0349
G1 X131.042 Y142.846 E.03089
G1 X130.516 Y142.823 E.02632
G1 X129.97 Y142.855 E.02734
G1 X129.583 Y142.918 E.0196
G1 X129.047 Y143.068 E.02782
G1 X128.66 Y143.235 E.02107
G1 X128.664 Y142.694 E.02704
G1 X128.69 Y142.577 E.00599
G1 X128.797 Y142.56 E.00542
G1 X152.279 Y141.118 E1.17599
G1 X153.395 Y141.101 E.05579
G1 X154.103 Y141.131 E.03542
G1 X154.993 Y141.226 E.04474
G1 X155.635 Y141.333 E.03253
G1 X156.614 Y141.56 E.05023
G1 X157.577 Y141.855 E.05034
G1 X158.09 Y142.045 E.02735
G1 X159.197 Y142.548 E.06078
G1 X159.83 Y142.892 E.03601
G1 X160.533 Y143.325 E.04127
G1 X161.323 Y143.893 E.04864
G1 X161.998 Y144.449 E.04371
G1 X160.735 Y144.457 E.06313
G1 X160.194 Y144.581 E.02774
G1 X159.916 Y144.705 E.01522
G1 X159.851 Y144.66 E.00395
G1 X159.307 Y144.469 E.02882
G1 X158.569 Y144.464 E.03689
G1 X157.884 Y144.776 E.03763
G1 X157.679 Y144.965 E.01394
G1 X157.19 Y144.645 E.02921
G1 X156.495 Y144.449 E.0361
G1 X155.76 Y144.456 E.03674
G1 X155.227 Y144.69 E.0291
G1 X154.756 Y144.451 E.0264
G1 X153.91 Y144.461 E.04229
G1 X153.248 Y144.754 E.03619
G1 X152.984 Y144.598 E.01533
G1 X152.294 Y144.413 E.03571
G1 X151.847 Y144.485 E.02263
G1 X151.436 Y144.582 E.02111
G1 X151.007 Y144.789 E.02381
G1 X150.696 Y145.05 E.02029
G1 X150.419 Y145.346 E.02026
G1 X150.135 Y145.952 E.03345
G1 X149.919 Y145.379 E.03061
G1 X149.579 Y144.738 E.03627
G1 X149.116 Y144.15 E.03741
G1 X148.624 Y143.731 E.0323
G1 X148.276 Y143.51 E.02061
G1 X147.798 Y143.291 E.02628
G1 X147.273 Y143.143 E.02727
G1 X146.689 Y143.044 E.02961
G1 X145.83 Y142.996 E.04301
G1 X145.193 Y143.004 E.03184
G1 X144.71 Y142.983 E.02417
G1 X144.123 Y143.046 E.02951
G1 X143.638 Y143.223 E.02581
G1 X143.263 Y143.434 E.02151
G1 X143.111 Y143.576 E.0104
G1 X142.901 Y143.404 E.01357
G1 X142.531 Y143.189 E.02139
G1 X142.029 Y142.987 E.02705
G1 X141.652 Y142.902 E.01932
G1 X141.26 Y142.841 E.01983
G1 X140.697 Y142.824 E.02816
G1 X140.218 Y142.846 E.02397
G1 X139.661 Y142.948 E.02831
G1 X139.142 Y143.127 E.02744
G1 X138.828 Y143.29 E.01768
G1 X138.747 Y143.22 E.00535
G1 X137.983 Y142.999 E.03976
G1 X134.925 Y142.996 E.15286
G1 X134.463 Y143.011 E.02311
G1 X133.762 Y142.963 E.03512
G1 X133.157 Y143.048 E.03054
G1 X132.668 Y143.281 E.02708
G1 X132.619 Y143.323 E.00323
M204 S10000
G1 X132.619 Y143.323 F30000
G1 X132.606 Y143.912
M204 S1500
G1 F3000
G1 X132.114 Y143.59 E.02939
G1 X131.535 Y143.379 E.0308
G1 X130.993 Y143.28 E.02754
G1 X130.52 Y143.259 E.02367
G1 X130.017 Y143.289 E.02519
G1 X129.677 Y143.344 E.01722
G1 X129.193 Y143.48 E.02513
G1 X128.84 Y143.632 E.01921
G1 X128.226 Y144.004 E.03589
G1 X128.224 Y142.734 E.06348
G1 X128.266 Y142.479 E.01292
G1 X128.353 Y142.304 E.00977
G1 X128.449 Y142.217 E.00648
G1 X128.611 Y142.149 E.00878
G1 X128.75 Y142.127 E.00703
G1 X152.259 Y140.683 E1.17734
G1 X153.408 Y140.665 E.05744
G1 X154.136 Y140.696 E.03642
G1 X155.052 Y140.794 E.04605
G1 X155.72 Y140.905 E.03385
G1 X156.727 Y141.139 E.05168
G1 X157.717 Y141.442 E.05175
G1 X158.252 Y141.641 E.02853
G1 X158.808 Y141.879 E.03023
G1 X159.395 Y142.16 E.03253
G1 X160.048 Y142.515 E.03715
G1 X160.775 Y142.963 E.04269
G1 X161.589 Y143.548 E.05011
G1 X162.25 Y144.092 E.04279
G1 X163.073 Y144.877 E.05685
G1 X160.785 Y144.892 E.11437
G1 X160.333 Y144.996 E.02318
G1 X159.887 Y145.216 E.02486
G1 X159.65 Y145.052 E.01441
G1 X159.231 Y144.904 E.02221
G1 X158.662 Y144.901 E.02844
G1 X158.128 Y145.144 E.02933
G1 X157.655 Y145.58 E.03216
G1 X157.458 Y145.341 E.01548
G1 X157.007 Y145.046 E.02694
G1 X156.436 Y144.885 E.02966
G1 X155.853 Y144.891 E.02914
G1 X155.213 Y145.171 E.03492
G1 X154.654 Y144.888 E.03132
G1 X154.004 Y144.895 E.03249
G1 X153.499 Y145.119 E.02761
G1 X153.265 Y145.313 E.01519
G1 X153.155 Y145.206 E.00767
G1 X152.813 Y145.003 E.01988
G1 X152.271 Y144.858 E.02805
G1 X151.932 Y144.912 E.01716
G1 X151.583 Y144.995 E.01793
G1 X151.245 Y145.158 E.01876
G1 X150.996 Y145.367 E.01625
G1 X150.784 Y145.593 E.01549
G1 X150.514 Y146.169 E.0318
G1 X150.514 Y146.646 E.02384
G1 X150.591 Y147.057 E.0209
G1 X150.765 Y147.475 E.02263
G1 X151.018 Y147.926 E.02585
G1 X150.881 Y148.066 E.00979
G1 X150.659 Y147.947 E.01259
G1 X150.214 Y147.812 E.02324
G1 X149.877 Y147.808 E.01685
G1 X149.89 Y147.427 E.01906
G1 X149.867 Y146.989 E.02192
G1 X149.755 Y146.283 E.03573
G1 X149.658 Y145.92 E.01878
G1 X149.522 Y145.558 E.01933
G1 X149.213 Y144.977 E.03289
G1 X148.801 Y144.453 E.03332
G1 X148.365 Y144.082 E.02862
G1 X148.068 Y143.894 E.01757
G1 X147.647 Y143.701 E.02315
G1 X147.177 Y143.568 E.02442
G1 X146.64 Y143.478 E.02722
G1 X145.82 Y143.431 E.04106
G1 X145.186 Y143.44 E.03169
G1 X144.723 Y143.419 E.02317
G1 X144.223 Y143.473 E.02514
G1 X143.821 Y143.62 E.0214
G1 X143.522 Y143.788 E.01714
G1 X143.109 Y144.175 E.02829
G1 X143.025 Y144.068 E.0068
G1 X142.652 Y143.763 E.02408
G1 X142.339 Y143.581 E.0181
G1 X141.899 Y143.404 E.02371
G1 X141.22 Y143.276 E.03454
G1 X140.7 Y143.26 E.02601
G1 X140.267 Y143.28 E.02167
G1 X139.772 Y143.37 E.02515
G1 X139.315 Y143.529 E.02419
G1 X138.871 Y143.759 E.02499
G1 X138.785 Y143.831 E.00561
G1 X138.533 Y143.611 E.01672
G1 X137.921 Y143.434 E.03185
G1 X134.932 Y143.432 E.14941
G1 X134.455 Y143.447 E.02386
G1 X133.778 Y143.401 E.03392
G1 X133.284 Y143.47 E.02493
G1 X132.909 Y143.649 E.02077
G1 X132.651 Y143.873 E.01708
M204 S10000
G1 E-.8 F7200
G1 Z.5 F3000
G1 X127.966 Y144.899 F30000
G1 Z.3 F3000
G1 E.8 F7200
M204 S1500
G1 F3000
G1 X127.791 Y144.838 E.00926
G1 X127.799 Y142.565 E.11362
G1 X127.851 Y142.338 E.01164
G1 X128.009 Y142.034 E.01713
G1 X128.195 Y141.861 E.0127
G1 X128.497 Y141.726 E.01654
G1 X128.702 Y141.693 E.01038
G1 X152.239 Y140.248 E1.17874
G1 X153.42 Y140.23 E.05904
G1 X154.168 Y140.262 E.03742
G1 X155.111 Y140.362 E.0474
G1 X155.805 Y140.478 E.03517
G1 X156.84 Y140.718 E.05311
G1 X157.856 Y141.029 E.05311
G1 X158.414 Y141.236 E.02975
G1 X158.988 Y141.483 E.03124
G1 X159.593 Y141.772 E.03351
G1 X160.267 Y142.138 E.03834
G1 X161.017 Y142.6 E.04403
G1 X161.855 Y143.202 E.05158
G1 X162.537 Y143.764 E.04417
G1 X163.143 Y144.328 E.04138
G1 X163.496 Y144.686 E.02513
G1 X164.203 Y145.504 E.05404
G1 X164.024 Y145.672 E.01227
G1 X163.876 Y145.531 E.01022
G1 X163.603 Y145.392 E.01531
G1 X163.344 Y145.333 E.01328
G1 X163.019 Y145.313 E.01628
G1 X160.836 Y145.328 E.10912
G1 X160.472 Y145.411 E.01866
G1 X160.272 Y145.5 E.01094
G1 X160.075 Y145.61 E.01128
G1 X159.875 Y145.814 E.01428
G1 X159.756 Y145.656 E.00989
G1 X159.45 Y145.443 E.01864
G1 X159.156 Y145.339 E.01559
G1 X158.756 Y145.337 E.01999
G1 X158.372 Y145.511 E.02107
G1 X158.094 Y145.768 E.01892
G1 X157.874 Y146.085 E.01929
G1 X157.637 Y146.606 E.02861
G1 X157.525 Y146.204 E.02086
G1 X157.397 Y145.953 E.01408
G1 X157.164 Y145.669 E.01836
G1 X156.825 Y145.448 E.02023
G1 X156.378 Y145.322 E.02321
G1 X155.946 Y145.326 E.02159
G1 X155.501 Y145.521 E.02429
G1 X155.223 Y145.795 E.01951
G1 X155.024 Y145.563 E.01528
G1 X154.552 Y145.325 E.02642
G1 X154.099 Y145.33 E.02265
G1 X153.73 Y145.493 E.02016
G1 X153.376 Y145.786 E.02297
G1 X153.275 Y145.928 E.00871
G1 X152.889 Y145.555 E.02683
G1 X152.643 Y145.408 E.01432
G1 X152.249 Y145.303 E.02038
G1 X151.729 Y145.408 E.02652
G1 X151.484 Y145.527 E.01361
